symbols/web/router/materialsymbolsoutlined/router_wght500grad200_20px.svg

<svg xmlns="http://www.w3.org/2000/svg" height="20" width="20"><path d="M3.833 19.188q-1 0-1.718-.719-.719-.719-.719-1.74v-3.208q0-1 .719-1.719.718-.719 1.718-.719h7.813V7.979h2.458v3.104h1.458q1 0 1.719.719.719.719.719 1.719v3.208q0 1.021-.719 1.74-.719.719-1.719.719Zm11.729-2.459v-3.208H3.833v3.208Zm-9.145-1.583q0-.396-.271-.667t-.667-.271q-.396 0-.667.271-.27.271-.27.667 0 .375.27.656.271.281.667.281t.667-.281q.271-.281.271-.656Zm2.895 0q0-.396-.281-.667t-.677-.271q-.375 0-.656.271t-.281.667q0 .375.281.656t.656.281q.396 0 .677-.281t.281-.656Zm1.938.937q.396 0 .667-.281t.271-.656q0-.396-.271-.667t-.667-.271q-.396 0-.667.271t-.271.667q0 .375.271.656t.667.281Zm-.292-9L9.333 5.458q.688-.646 1.594-1.031.906-.385 1.948-.385 1.042 0 1.937.385.896.385 1.584 1.031l-1.625 1.625q-.333-.354-.813-.552-.479-.198-1.083-.198t-1.094.198q-.489.198-.823.552ZM8.229 4.375 6.604 2.75Q7.812 1.562 9.406.885t3.469-.677q1.875 0 3.469.677 1.594.677 2.802 1.865l-1.625 1.625q-.917-.896-2.084-1.385-1.166-.49-2.562-.49-1.417 0-2.573.49-1.156.489-2.073 1.385ZM3.833 16.729v-3.208 3.208Z"/></svg>

<svg xmlns="http://www.w3.org/2000/svg" height="20" width="20"><path d="M3.833 19.188Q2.833 19.188 2.115 18.469Q1.396 17.75 1.396 16.729V13.521Q1.396 12.521 2.115 11.802Q2.833 11.083 3.833 11.083H11.646V7.979H14.104V11.083H15.562Q16.562 11.083 17.281 11.802Q18 12.521 18 13.521V16.729Q18 17.75 17.281 18.469Q16.562 19.188 15.562 19.188ZM15.562 16.729Q15.562 16.729 15.562 16.729Q15.562 16.729 15.562 16.729V13.521Q15.562 13.521 15.562 13.521Q15.562 13.521 15.562 13.521H3.833Q3.833 13.521 3.833 13.521Q3.833 13.521 3.833 13.521V16.729Q3.833 16.729 3.833 16.729Q3.833 16.729 3.833 16.729ZM6.417 15.146Q6.417 14.75 6.146 14.479Q5.875 14.208 5.479 14.208Q5.083 14.208 4.812 14.479Q4.542 14.75 4.542 15.146Q4.542 15.521 4.812 15.802Q5.083 16.083 5.479 16.083Q5.875 16.083 6.146 15.802Q6.417 15.521 6.417 15.146ZM9.312 15.146Q9.312 14.75 9.031 14.479Q8.75 14.208 8.354 14.208Q7.979 14.208 7.698 14.479Q7.417 14.75 7.417 15.146Q7.417 15.521 7.698 15.802Q7.979 16.083 8.354 16.083Q8.75 16.083 9.031 15.802Q9.312 15.521 9.312 15.146ZM11.25 16.083Q11.646 16.083 11.917 15.802Q12.188 15.521 12.188 15.146Q12.188 14.75 11.917 14.479Q11.646 14.208 11.25 14.208Q10.854 14.208 10.583 14.479Q10.312 14.75 10.312 15.146Q10.312 15.521 10.583 15.802Q10.854 16.083 11.25 16.083ZM10.958 7.083 9.333 5.458Q10.021 4.812 10.927 4.427Q11.833 4.042 12.875 4.042Q13.917 4.042 14.812 4.427Q15.708 4.812 16.396 5.458L14.771 7.083Q14.438 6.729 13.958 6.531Q13.479 6.333 12.875 6.333Q12.271 6.333 11.781 6.531Q11.292 6.729 10.958 7.083ZM8.229 4.375 6.604 2.75Q7.812 1.562 9.406 0.885Q11 0.208 12.875 0.208Q14.75 0.208 16.344 0.885Q17.938 1.562 19.146 2.75L17.521 4.375Q16.604 3.479 15.437 2.99Q14.271 2.5 12.875 2.5Q11.458 2.5 10.302 2.99Q9.146 3.479 8.229 4.375ZM3.833 16.729Q3.833 16.729 3.833 16.729Q3.833 16.729 3.833 16.729V13.521Q3.833 13.521 3.833 13.521Q3.833 13.521 3.833 13.521Q3.833 13.521 3.833 13.521Q3.833 13.521 3.833 13.521V16.729Q3.833 16.729 3.833 16.729Q3.833 16.729 3.833 16.729Z"/></svg>
